X:3069
T:Clapton Jig, The
R:jig
D:Dervish: The Boys of Sligo
Z:id:hn-jig-119
M:6/8
K:Ador
age a2b|ged BAG|age age|def ~g3|age a2b|ged BAG|cBc dcd
|1 ede ~g3:|2 ege dcA|:~d3 cAG|B/c/dB cAG|AdB cAG|~E3 GEG|
A2d cAG|B/c/dB cAG|1 AdB cAG|~E3 D3:|2 cBc dcd|ede ~g3||


